assets/img/braze_icons/cloud-raining-06.svg

<svg fill="none" height="24" viewBox="0 0 24 24" width="24" xmlns="http://www.w3.org/2000/svg"><g fill="#801ed7"><path d="m12 1c-2.31095 0-4.33874 1.20617-5.49059 3.01977-3.08425.24959-5.50941 2.8317-5.50941 5.98023 0 3.3137 2.68629 6 6 6h10.5c3.0376 0 5.5-2.4624 5.5-5.5 0-2.86519-2.1909-5.21866-4.9888-5.47655-.9737-2.36082-3.2972-4.02345-6.0112-4.02345z"/><path d="m4 18c0-.5523.44772-1 1-1h2c.55228 0 1 .4477 1 1s-.44772 1-1 1h-2c-.55228 0-1-.4477-1-1z"/><path d="m10 17c-.55229 0-1 .4477-1 1s.44771 1 1 1h9c.5523 0 1-.4477 1-1s-.4477-1-1-1z"/><path d="m6 20c-.55228 0-1 .4477-1 1s.44772 1 1 1h7c.5523 0 1-.4477 1-1s-.4477-1-1-1z"/><path d="m16 20c-.5523 0-1 .4477-1 1s.4477 1 1 1h2c.5523 0 1-.4477 1-1s-.4477-1-1-1z"/></g></svg>

<svg width="24" height="24" viewBox="0 0 24 24" fill="none" xmlns="http://www.w3.org/2000/svg">
<path d="M12 1C9.68905 1 7.66126 2.20617 6.50941 4.01977C3.42516 4.26936 1 6.85147 1 10C1 13.3137 3.68629 16 7 16H17.5C20.5376 16 23 13.5376 23 10.5C23 7.63481 20.8091 5.28134 18.0112 5.02345C17.0375 2.66263 14.714 1 12 1Z" fill="#801ED7"/>
<path d="M4 18C4 17.4477 4.44772 17 5 17H7C7.55228 17 8 17.4477 8 18C8 18.5523 7.55228 19 7 19H5C4.44772 19 4 18.5523 4 18Z" fill="#801ED7"/>
<path d="M10 17C9.44771 17 9 17.4477 9 18C9 18.5523 9.44771 19 10 19H19C19.5523 19 20 18.5523 20 18C20 17.4477 19.5523 17 19 17H10Z" fill="#801ED7"/>
<path d="M6 20C5.44772 20 5 20.4477 5 21C5 21.5523 5.44772 22 6 22H13C13.5523 22 14 21.5523 14 21C14 20.4477 13.5523 20 13 20H6Z" fill="#801ED7"/>
<path d="M16 20C15.4477 20 15 20.4477 15 21C15 21.5523 15.4477 22 16 22H18C18.5523 22 19 21.5523 19 21C19 20.4477 18.5523 20 18 20H16Z" fill="#801ED7"/>
</svg>
